X: 112
T:Road to Durham
R:Jig
S:Altan: Horse 
Z: Alf 
M:6/8
L:1/8
Q:3/8=120
K:D
|:FAA ABd|BAG AGD|GFG B2B|AGA E2D|
FAA ABd|BAG AGE|DED F2A|GEA D3:|
:FAA AB=c|ded B2A|GFG B2B|AGA E2D|
FAA AB=c|dAd AFE|DED F2A|GED D3:|
